X: 6
T: The Bunch Of Keys (mec lir version)
R: reel
M: 4/4
L: 1/8
K: Gdor
GF |:DGGF ~G3A|BGdG eGdG|DFFE ~F2cF|~F2cF dFcF |
DGGF ~G3A|ABGA Bcde | ~f2 (3efg fdcA |1 AGFG AGGF :|2 AGFG AGGc | 
|:dggf g3a|bg ~g2 bgaf|dffe f3g|af ~f2 afgf|
|1 dggf g3a|bg ~g2 bgaf | ~f2 (3efg fdcA | AGFG AGGc :|
|2 dg~g2 dgBg|~g2 cfAf  | fd (3efg fdcA | AGFG AGGF |